actions/scalable/fill-color.svg

<?xml version="1.0" encoding="UTF-8" standalone="no"?>
<!-- Created with Inkscape (http://www.inkscape.org/) -->

<svg
   xmlns:dc="http://purl.org/dc/elements/1.1/"
   xmlns:cc="http://creativecommons.org/ns#"
   xmlns:rdf="http://www.w3.org/1999/02/22-rdf-syntax-ns#"
   xmlns:svg="http://www.w3.org/2000/svg"
   xmlns="http://www.w3.org/2000/svg"
   xmlns:sodipodi="http://sodipodi.sourceforge.net/DTD/sodipodi-0.dtd"
   xmlns:inkscape="http://www.inkscape.org/namespaces/inkscape"
   width="22"
   height="22"
   id="svg2"
   version="1.1"
   inkscape:version="0.48+devel r"
   viewBox="0 0 22 22"
   sodipodi:docname="fill-color.svg">
  <defs
     id="defs4" />
  <sodipodi:namedview
     id="base"
     pagecolor="#ffffff"
     bordercolor="#666666"
     borderopacity="1.0"
     inkscape:pageopacity="0.0"
     inkscape:pageshadow="2"
     inkscape:zoom="34.574201"
     inkscape:cx="17.129254"
     inkscape:cy="11.33125"
     inkscape:document-units="px"
     inkscape:current-layer="layer1"
     showgrid="true"
     units="px"
     borderlayer="true"
     inkscape:showpageshadow="false"
     inkscape:window-width="1366"
     inkscape:window-height="668"
     inkscape:window-x="-2"
     inkscape:window-y="23"
     inkscape:window-maximized="1"
     showguides="true">
    <sodipodi:guide
       position="2,20.000017"
       orientation="18,0"
       id="guide4066" />
    <sodipodi:guide
       position="2,2.0000174"
       orientation="0,18"
       id="guide4068" />
    <sodipodi:guide
       position="20,2.0000174"
       orientation="-18,0"
       id="guide4070" />
    <sodipodi:guide
       position="20,20.000017"
       orientation="0,-18"
       id="guide4072" />
    <sodipodi:guide
       position="3,19.000017"
       orientation="16,0"
       id="guide4074" />
    <sodipodi:guide
       position="3,3.0000174"
       orientation="0,16"
       id="guide4076" />
    <sodipodi:guide
       position="19,3.0000174"
       orientation="-16,0"
       id="guide4078" />
    <sodipodi:guide
       position="19,19.000017"
       orientation="0,-16"
       id="guide4080" />
    <inkscape:grid
       type="xygrid"
       id="grid4101" />
    <sodipodi:guide
       position="8,19.000017"
       orientation="0,-5"
       id="guide4124" />
    <sodipodi:guide
       position="11,3.0000174"
       orientation="0,4"
       id="guide4241" />
  </sodipodi:namedview>
  <metadata
     id="metadata7">
    <rdf:RDF>
      <cc:Work
         rdf:about="">
        <dc:format>image/svg+xml</dc:format>
        <dc:type
           rdf:resource="http://purl.org/dc/dcmitype/StillImage" />
        <dc:title />
      </cc:Work>
    </rdf:RDF>
  </metadata>
  <g
     inkscape:label="Capa 1"
     inkscape:groupmode="layer"
     id="layer1"
     transform="translate(0,-1030.3622)">
    <path
       style="opacity:1;fill:#666666;fill-opacity:1;stroke:none"
       d="M 5.5 3 C 5.013545 4.7025 3.8218 6.1660906 3.296875 7.3378906 C 3.113175 7.6862906 3 8.0773 3 8.5 C 3 9.885 4.115 11 5.5 11 C 6.885 11 8 9.885 8 8.5 C 8 8.0773 7.886825 7.6862906 7.703125 7.3378906 C 7.1782 6.1660906 5.98645 4.7025 5.5 3 z M 16.5 3 C 16.013545 4.7025 14.8218 6.1660906 14.296875 7.3378906 C 14.113175 7.6862906 14 8.0773 14 8.5 C 14 9.885 15.115 11 16.5 11 C 17.885 11 19 9.885 19 8.5 C 19 8.0773 18.886825 7.6862906 18.703125 7.3378906 C 18.1782 6.1660906 16.98645 4.7025 16.5 3 z M 11 11 C 10.513545 12.7025 9.3218 14.166091 8.796875 15.337891 C 8.613175 15.686291 8.5 16.0773 8.5 16.5 C 8.5 17.885 9.615 19 11 19 C 12.385 19 13.5 17.885 13.5 16.5 C 13.5 16.0773 13.386825 15.686291 13.203125 15.337891 C 12.6782 14.166091 11.48645 12.7025 11 11 z "
       transform="translate(0,1030.3622)"
       id="rect4108" />
  </g>
</svg>

<svg height="22" viewBox="0 0 22 22" width="22" xmlns="http://www.w3.org/2000/svg" xmlns:sodipodi="http://sodipodi.sourceforge.net/DTD/sodipodi-0.dtd" xmlns:inkscape="http://www.inkscape.org/namespaces/inkscape">
 <path d="m5.5 3c-0.4865 1.7025-1.6782 3.1661-2.2031 4.3379-0.1837 0.3484-0.2969 0.7394-0.2969 1.1621 0 1.385 1.115 2.5 2.5 2.5s2.5-1.115 2.5-2.5c0-0.4227-0.1132-0.8137-0.2969-1.1621-0.5249-1.1718-1.7167-2.6354-2.2031-4.3379zm11 0c-0.486 1.7025-1.678 3.1661-2.203 4.3379-0.184 0.3484-0.297 0.7394-0.297 1.1621 0 1.385 1.115 2.5 2.5 2.5s2.5-1.115 2.5-2.5c0-0.4227-0.113-0.8137-0.297-1.1621-0.525-1.1718-1.717-2.6354-2.203-4.3379zm-5.5 8c-0.486 1.702-1.6782 3.166-2.2031 4.338-0.1837 0.348-0.2969 0.739-0.2969 1.162 0 1.385 1.115 2.5 2.5 2.5s2.5-1.115 2.5-2.5c0-0.423-0.113-0.814-0.297-1.162-0.525-1.172-1.717-2.636-2.203-4.338z" fill="#4d4d4d" transform="matrix(1 0 0 1 0 0)"/>
</svg>
